!!!OTL: Deirín dé, S. 15
!!!id: I0530
**kern
*clefG2
*k[b-]
*g:
*M4/4
{4g
4g
4g
4a
=2
16a
8.f
8f
8d
4.f}
=3
{8f
=4
4g
4a
4b-
4d
=5
4b-
4a
4g}
4r
=6
{4g
4g
4g
4a
=7
16a
8.f
8f
8d
4.f}
=8
{8f
=9
4g
4a
4b-
4d
=10
4b-
4a
4g}
4r
==
*-
!!!minrhy: 16
!!!meters: 4/4 ]  ZZ[4
!!!cut: Deirín dé, S. 15
!!!reg: Irland
!!!trd: O'SULLIVAN, Donal: Song of the Irish
!!!rhy1: X__X__X__X__  XX_.X_X_X__.
!!!rhy2: X_  X__X__X__X__  X__X__X__0__
!!!key: I0530  16  G 4/4 ]  ZZ[4
!!!mod: PENTATONIK ]  AMBITUS[6b
!!!kad: -7b1-7b1
!!!akz: 112-7b_13b3b1_112-7b_13b3b1_
!!!fot: 'a__b__a__b__
!!!for: 'a__b__a__b__
!!!fok: 'Vd_^a_Vd_^a_
!! PHRAS[GEMISCHTTAKTIG]
!!!fkt: Schlaflied
!! IRISCHE V
!! PR[6] 2K[20] 2G[24] 3K[8] 3G[0] 4A[0] 4Ü[0] 5A[0] 6K[0] 6G[0]
!! 7K[0] 7G[0] 8A[0] MEHR[0] SI[53] ABS[99] SR[44] SP[8]
!! ST[24] 2k[9] 2g[14] 3k[18] 3g[0] 4d[0] 4ü[0] 5d[0] 6k[0] 6g[0]
!! 7k[0] 7g[0] 8d[0] mehr[0] si[41] dm[+12] sr[23] sp[18]
!! 1F[26] 2F[64] 3F[8] 4F[0] LF[0] 2P[2] 3P[0] 4P[0] TRI[0] DF[4] AB[100]
!! TF[0] U3K[0] U3[0] U4[0] U4Ü[0] U5[0] U6K[0] U6[0] U7K[0] U7[14]
!! N1[15] N2K[0] N2[24] N3K[0] N3[16] N4[20] N4Ü[0] N5[11] N6K[0] N6[0]
!!!n7k: 0] N7[0] O1[0] O2K[0] O2[0] O3K[0] O3[0] HÖ[0
